gitlab.svg

<svg viewBox="0 0 24 24" xmlns="http://www.w3.org/2000/svg"><path d="M23.9924 11.5C24.0259 12.1574 23.9479 12.8036 23.7585 13.4387C23.5802 14.0627 23.3016 14.6644 22.934 15.1992C22.5663 15.7451 22.1094 16.2242 21.5858 16.6142L21.5746 16.6253L16.5719 20.3802L14.0983 22.2521L12.6053 23.3885C12.5162 23.4554 12.4196 23.5037 12.3156 23.5334C12.2116 23.5705 12.1039 23.5891 11.9925 23.5891C11.8811 23.5891 11.7734 23.5705 11.6694 23.5334C11.5654 23.5037 11.4725 23.4554 11.3908 23.3885L9.88667 22.2521L7.42429 20.3802L2.45495 16.6476L2.43267 16.6253L2.41039 16.6142C1.89785 16.2242 1.44103 15.7451 1.07335 15.1992C0.694518 14.6644 0.415968 14.0627 0.237696 13.4387C0.059424 12.8036-0.01857 12.1574 0.003714 11.5C0.03714 10.8427 0.170844 10.1964 0.404826 9.58361L0.438252 9.50561L3.70286 0.959697C3.71771 0.915129 3.73628 0.874275 3.75857 0.837135C3.78085 0.799995 3.80685 0.762855 3.83656 0.725715C3.86627 0.688575 3.89599 0.655149 3.9257 0.625437C3.96284 0.595725 3.99998 0.569727 4.03712 0.547443C4.14854 0.480591 4.28224 0.436023 4.41595 0.413739C4.54965 0.402597 4.68335 0.424881 4.80592 0.469449C4.93962 0.514017 5.05104 0.592011 5.14018 0.692289C5.22931 0.792567 5.29616 0.915129 5.32959 1.04883L7.53571 7.81203L16.4604 7.81203L18.6666 1.04883C18.7111 0.915129 18.7668 0.792567 18.8671 0.692289C18.9563 0.592011 19.0677 0.514017 19.1902 0.469449C19.3239 0.424881 19.4576 0.402597 19.5914 0.413739C19.7251 0.436023 19.8476 0.480591 19.9702 0.547443C20.0073 0.569727 20.0407 0.595725 20.0705 0.625437C20.1076 0.655149 20.141 0.688575 20.1707 0.725715L20.2376 0.837135C20.2599 0.874275 20.2822 0.915129 20.3044 0.959697L23.569 9.49447L23.6025 9.58361C23.8365 10.1964 23.9702 10.8427 23.9924 11.5Z" fill="#e24329"/><path d="M23.9924 11.5C24.0259 12.1574 23.9479 12.8036 23.7696 13.4387C23.5802 14.0627 23.3016 14.6644 22.934 15.1992C22.5663 15.7451 22.1094 16.2242 21.5858 16.6142L21.5746 16.6253L16.5719 20.3802L12.0036 16.915L19.1791 11.4777C19.4985 11.2326 19.8328 11.0098 20.1819 10.8092C20.531 10.6012 20.8913 10.4155 21.2627 10.2521C21.6341 10.0813 22.0129 9.93272 22.3991 9.80645C22.778 9.68017 23.1679 9.57618 23.569 9.49447L23.6025 9.58361C23.8365 10.1964 23.9702 10.8427 23.9924 11.5Z" fill="#fc6d26"/><path d="M12.0036 16.915L16.5719 20.3802L14.0983 22.2521L12.6053 23.3885C12.5162 23.4554 12.4196 23.5037 12.3156 23.5334C12.2116 23.5705 12.1039 23.5891 11.9925 23.5891C11.8811 23.5891 11.7734 23.5705 11.6694 23.5334C11.5654 23.5037 11.4725 23.4554 11.3908 23.3885L9.88667 22.2521L7.42429 20.3802L12.0036 16.915Z" fill="#fca326"/><path d="M11.9925 16.915L7.42429 20.3802L2.45495 16.6476L2.43267 16.6254L2.41039 16.6142C1.89785 16.2242 1.44103 15.7451 1.07335 15.1992C0.694519 14.6644 0.415969 14.0627 0.237697 13.4387C0.0594246 12.8036-0.0185694 12.1574 0.00371465 11.5C0.0371407 10.8427 0.170845 10.1964 0.404827 9.58361L0.438253 9.50561C0.831937 9.58732 1.22191 9.6876 1.60816 9.80645C1.99442 9.93272 2.37325 10.0813 2.74465 10.2521C3.10862 10.4155 3.46516 10.6012 3.81428 10.8092C4.16339 11.0172 4.50137 11.24 4.8282 11.4777L11.9925 16.915Z" fill="#fc6d26"/></svg>

<svg viewBox="0 0 24 24" xmlns="http://www.w3.org/2000/svg"><path d="M23.992 11.5a5.717 5.717 0 0 1-.233 1.939 6.059 6.059 0 0 1-.825 1.76 5.818 5.818 0 0 1-1.348 1.415l-.011.011-5.003 3.755-2.474 1.872-1.493 1.137a.883.883 0 0 1-.29.144.955.955 0 0 1-.646 0 .767.767 0 0 1-.278-.145l-1.504-1.136-2.463-1.872-4.97-3.732-.021-.023-.023-.01c-.512-.39-.969-.87-1.337-1.416a5.81 5.81 0 0 1-.835-1.76A6.337 6.337 0 0 1 .004 11.5a6.259 6.259 0 0 1 .4-1.916l.034-.078L3.703.96a.615.615 0 0 1 .056-.123 1.013 1.013 0 0 1 .167-.212C3.963.595 4 .57 4.037.547c.112-.066.245-.111.379-.133a.923.923 0 0 1 .39.055.77.77 0 0 1 .334.223c.09.1.156.223.19.357l2.206 6.763h8.924l2.207-6.763a.87.87 0 0 1 .2-.357c.09-.1.2-.178.323-.223.134-.044.268-.066.401-.055.134.022.257.067.38.133.036.023.07.049.1.078a.64.64 0 0 1 .1.1l.067.112c.022.037.044.078.066.123l3.265 8.534.034.09c.233.612.367 1.259.39 1.916Z" fill="#e24329"/><path d="M23.992 11.5a6 6 0 0 1-.222 1.939 6.391 6.391 0 0 1-.836 1.76 5.818 5.818 0 0 1-1.348 1.415l-.011.011-5.003 3.755-4.568-3.465 7.175-5.437a9.06 9.06 0 0 1 1.003-.669c.349-.208.71-.393 1.08-.557a10.608 10.608 0 0 1 2.307-.758l.034.09c.233.612.367 1.259.39 1.916Z" fill="#fc6d26"/><path d="m12.004 16.915 4.568 3.465-2.474 1.872-1.493 1.137a.883.883 0 0 1-.29.144.955.955 0 0 1-.646 0 .767.767 0 0 1-.278-.145l-1.504-1.136-2.463-1.872 4.58-3.465Z" fill="#fca326"/><path d="M11.992 16.915 7.425 20.38l-4.97-3.732-.021-.023-.023-.01c-.512-.39-.969-.87-1.337-1.416a5.81 5.81 0 0 1-.835-1.76A6.337 6.337 0 0 1 .004 11.5a6.259 6.259 0 0 1 .4-1.916l.034-.078c.394.081.784.182 1.17.3.386.127.765.275 1.137.446.364.163.72.35 1.07.557.348.208.686.431 1.013.669l7.164 5.437Z" fill="#fc6d26"/></svg>
